.storybook/public/story-assets/icon_3_dark.svg

<svg width="32" height="32" viewBox="0 0 32 32" fill="none" xmlns="http://www.w3.org/2000/svg">
<path fill-rule="evenodd" clip-rule="evenodd" d="M27.2583 21.5L18.5981 6.5C17.4434 4.5 14.5566 4.5 13.4019 6.5L4.74169 21.5C3.58699 23.5 5.03036 26 7.33976 26H24.6603C26.9697 26 28.413 23.5 27.2583 21.5ZM21.1962 5C18.8868 0.999999 13.1133 1 10.8039 5L2.14361 20C-0.165792 24 2.72096 29 7.33976 29H24.6603C29.2791 29 32.1658 24 29.8564 20L21.1962 5Z" fill="#F5F5F5"/>
</svg>

<svg xmlns="http://www.w3.org/2000/svg" width="32" height="32" fill="none"><path fill="#F5F5F5" fill-rule="evenodd" d="m27.258 21.5-8.66-15c-1.155-2-4.041-2-5.196 0l-8.66 15C3.587 23.5 5.03 26 7.34 26h17.32c2.31 0 3.753-2.5 2.598-4.5M21.196 5c-2.31-4-8.083-4-10.392 0l-8.66 15c-2.31 4 .577 9 5.196 9h17.32c4.62 0 7.506-5 5.196-9z" clip-rule="evenodd"/></svg>
